X: 86
T: Come Back Alive
B: canberra pickers and fiddlers
B: old time tunes update
B: tunes
M:2/2
L:1/16
Q: 1/2=160
K:D
V:1 
A2F2[A,E]4[AA]4A2[AB]2|[Ac]2A2B4[EB]4B2c2|d2B2c4[Ae]8|[Ae]6[Af]2[Ae]2[Ad]2[Ac]2A2|
B2c2A4[EA]4A2B2|c2A2B4[EB]4B2c2|d2B2c4A6B2|A2E2F2E2F2G2A2E2|
F2G2[A,E]4[AA]4A2[AB]2|[Ac]2A2B4[EB]4B2c2|d2B2c4[Ae]8|[Ae]6[Af]2[Ae]2[Ad]2[Ac]2A2|
B2c2A4[EA]4A2B2|c2A2B4[EB]4B2c2|d2B2c4A6B2|A2E2F2E2F2G2A2E2|
F2G2[EA]4c4c4-|c2A4B2[cc]4[A-c-]4|[Ac]4[EA]4c4c4-|c2A4B2c4[E-B-]4|
[EB]4[EA]4c4c4-|c2A4B2c2A2[F-d-]4|[Fd]4[Ec]6d2c2B2|A2c2B4A6B2|
A2F2[EA]4c4c4-|c2A4B2[cc]4[A-c-]4|[Ac]4[EA]4c4c4-|c2A4B2c4[E-B-]4|
[EB]4[EA]4c4c4-|c2A4B2c2A2[F-d-]4|[Fd]4c8A4-|A2c2B4A8-|A4||
% abcbook-tune_id 67a7d9ec9c952e264a3b6691
% abcbook-tune_composer_id 
% abcbook-link-0 https://www.youtube.com/watch?v=Vax2Esn6aYo
% abcbook-link-title-0 Come Back Alive
% abcbook-boost 0
% abcbook-difficulty 0
% abcbook-tags old time tunes
% abcbook-tablature 
% abcbook-transpose -5
% abcbook-tuning AEAC#
% abcbook-lastupdated 1739146456938
% abcbook-src-url 
% abcbook-soundfonts 
% abcbook-repeats 1
%%MIDI transpose -5


